packages/kaspersky-hexa-ui-icons/src/iconsSVGs/24/Ok.svg

<svg width="24" height="24" viewBox="0 0 24 24" fill="none" xmlns="http://www.w3.org/2000/svg">
<path fill-rule="evenodd" clip-rule="evenodd" d="M19.7071 6.29289C20.0976 6.68342 20.0976 7.31658 19.7071 7.70711L9.70711 17.7071C9.31658 18.0976 8.68342 18.0976 8.29289 17.7071L4.29289 13.7071C3.90237 13.3166 3.90237 12.6834 4.29289 12.2929C4.68342 11.9024 5.31658 11.9024 5.70711 12.2929L9 15.5858L18.2929 6.29289C18.6834 5.90237 19.3166 5.90237 19.7071 6.29289Z" fill="black"/>
</svg>

<svg xmlns="http://www.w3.org/2000/svg" width="24" height="24" fill="none" viewBox="0 0 24 24"><path fill="#000" fill-rule="evenodd" d="M19.7071 6.2929c.3905.3905.3905 1.0237 0 1.4142l-10 10c-.3905.3905-1.0237.3905-1.4142 0l-4-4c-.3905-.3905-.3905-1.0237 0-1.4142s1.0237-.3905 1.4142 0L9 15.5858l9.2929-9.293c.3905-.3904 1.0237-.3904 1.4142 0"/></svg>
